src/assets/bold/lm-rectangle-focus-bold.svg

<svg width="24" height="24" viewBox="0 0 24 24" fill="none" xmlns="http://www.w3.org/2000/svg" fill="currentColor">
<path d="M22.5 5V19C22.5 19.3978 22.342 19.7794 22.0607 20.0607C21.7794 20.342 21.3978 20.5 21 20.5H3C2.60218 20.5 2.22064 20.342 1.93934 20.0607C1.65804 19.7794 1.5 19.3978 1.5 19V5C1.5 4.60218 1.65804 4.22064 1.93934 3.93934C2.22064 3.65804 2.60218 3.5 3 3.5L21 3.5C21.3978 3.5 21.7794 3.65804 22.0607 3.93934C22.342 4.22064 22.5 4.60218 22.5 5ZM21 19V5H3V19H21Z" fill="black"/>
<path d="M20 6.75V10.2803C20 10.4792 19.921 10.67 19.7803 10.8107C19.6397 10.9513 19.4489 11.0303 19.25 11.0303C19.0511 11.0303 18.8603 10.9513 18.7197 10.8107C18.579 10.67 18.5 10.4792 18.5 10.2803V7.5H15.7197C15.5208 7.5 15.33 7.42098 15.1893 7.28033C15.0487 7.13968 14.9697 6.94891 14.9697 6.75C14.9697 6.55109 15.0487 6.36032 15.1893 6.21967C15.33 6.07902 15.5208 6 15.7197 6H19.25C19.4489 6 19.6397 6.07902 19.7803 6.21967C19.921 6.36032 20 6.55109 20 6.75ZM8.25 16.5H5.5V13.75C5.5 13.5511 5.42098 13.3603 5.28033 13.2197C5.13968 13.079 4.94891 13 4.75 13C4.55109 13 4.36032 13.079 4.21967 13.2197C4.07902 13.3603 4 13.5511 4 13.75V17.25C4 17.4489 4.07902 17.6397 4.21967 17.7803C4.36032 17.921 4.55109 18 4.75 18H8.25C8.44891 18 8.63968 17.921 8.78033 17.7803C8.92098 17.6397 9 17.4489 9 17.25C9 17.0511 8.92098 16.8603 8.78033 16.7197C8.63968 16.579 8.44891 16.5 8.25 16.5ZM19.25 13C19.0511 13 18.8603 13.079 18.7197 13.2197C18.579 13.3603 18.5 13.5511 18.5 13.75V16.5H15.7197C15.5208 16.5 15.33 16.579 15.1893 16.7197C15.0487 16.8603 14.9697 17.0511 14.9697 17.25C14.9697 17.4489 15.0487 17.6397 15.1893 17.7803C15.33 17.921 15.5208 18 15.7197 18H19.25C19.4489 18 19.6397 17.921 19.7803 17.7803C19.921 17.6397 20 17.4489 20 17.25V13.75C20 13.5511 19.921 13.3603 19.7803 13.2197C19.6397 13.079 19.4489 13 19.25 13ZM8.25 6H4.75C4.55109 6 4.36032 6.07902 4.21967 6.21967C4.07902 6.36032 4 6.55109 4 6.75V10.25C4 10.4489 4.07902 10.6397 4.21967 10.7803C4.36032 10.921 4.55109 11 4.75 11C4.94891 11 5.13968 10.921 5.28033 10.7803C5.42098 10.6397 5.5 10.4489 5.5 10.25V7.5H8.25C8.44891 7.5 8.63968 7.42098 8.78033 7.28033C8.92098 7.13968 9 6.94891 9 6.75C9 6.55109 8.92098 6.36032 8.78033 6.21967C8.63968 6.07902 8.44891 6 8.25 6Z" fill="black"/>
</svg>

<svg xmlns="http://www.w3.org/2000/svg" width="24" height="24" fill="currentColor" viewBox="0 0 24 24">
  <path d="M22.5 5v14a1.5 1.5 0 0 1-1.5 1.5H3A1.5 1.5 0 0 1 1.5 19V5A1.5 1.5 0 0 1 3 3.5h18A1.5 1.5 0 0 1 22.5 5ZM21 19V5H3v14h18Z"/>
  <path d="M20 6.75v3.53a.75.75 0 1 1-1.5 0V7.5h-2.78a.75.75 0 0 1 0-1.5h3.53a.75.75 0 0 1 .75.75ZM8.25 16.5H5.5v-2.75a.75.75 0 1 0-1.5 0v3.5a.75.75 0 0 0 .75.75h3.5a.75.75 0 1 0 0-1.5Zm11-3.5a.75.75 0 0 0-.75.75v2.75h-2.78a.75.75 0 1 0 0 1.5h3.53a.75.75 0 0 0 .75-.75v-3.5a.75.75 0 0 0-.75-.75Zm-11-7h-3.5a.75.75 0 0 0-.75.75v3.5a.75.75 0 1 0 1.5 0V7.5h2.75a.75.75 0 0 0 0-1.5Z"/>
</svg>
